X: 241
T: No_95_Chicken_Dance_Song_(d).krn
N: Derived from No_95_Chicken_Dance_Song_(d).krn
%%abc-version 2.0
%%abcx-abcm2ps-target-version 5.9.1 (29 Sep 2008)
%%abc-creator hum2abc beta
%%abcx-conversion-date 2019/03/15 08:38:45
%%humdrum-veritas 1463221060
%%humdrum-veritas-data 2852851661
%%linebreak <none>
%%barnumbers 0
L: 1/16
M: 2/4
K: F clef=bass
[K:clef=bass][M:2/4]z4z3 D ]|:  
C3D D3C ||  
[M:3/4]C6C2 CB,3/A,/ z/ C/ | 
C3B, A,3F, (3F,2F,2F,2 ||  
[M:2/4]F,3F, F,3F, | 
F,4z2 F,F, ||  
[M:3/4]F,4z2 F,2F,4 | 
(3A,2F,2F,2 F,3A,A,4 ||  
[M:2/4]F,3F, F,F,D,F, ||  
[M:5/8]F,3F,F,4CC :|]  
[M:2/4]C3D D3C ||  
[M:3/4]C6C2 CB,A, z/ C/ | 
C3B, A,3F, (3F,2F,2F,2 | 
F,3F, F,3F,F,4 |]  



